svgs/sharp-regular/hexagon-exclamation.svg

<svg xmlns="http://www.w3.org/2000/svg" viewBox="0 0 512 512"><!--! Font Awesome Pro 6.6.0 by @fontawesome - https://fontawesome.com License - https://fontawesome.com/license (Commercial License) Copyright 2024 Fonticons, Inc. --><path d="M55.3 256L155.9 80l200.3 0L456.7 256 356.1 432l-200.3 0L55.3 256zM128 32L0 256 128 480l256 0L512 256 384 32 128 32zm152 96l-48 0 0 24 0 112 0 24 48 0 0-24 0-112 0-24zM232 320l0 48 48 0 0-48-48 0z"/></svg>

<svg xmlns="http://www.w3.org/2000/svg" viewBox="0 0 512 512"><!--! Font Awesome Pro 6.4.0 by @fontawesome - https://fontawesome.com License - https://fontawesome.com/license (Commercial License) Copyright 2023 Fonticons, Inc. --><path d="M55.3 256L155.9 80H356.1L456.7 256 356.1 432H155.9L55.3 256zM128 32L0 256 128 480H384L512 256 384 32H128zm152 96H232v24V264v24h48V264 152 128zM232 320v48h48V320H232z"/></svg>
